icons/sort.svg

<svg width="24" height="24" viewBox="0 0 24 24" fill="none" xmlns="http://www.w3.org/2000/svg">
<path fill-rule="evenodd" clip-rule="evenodd" d="M7.70711 8.70711C7.31658 9.09763 6.68342 9.09763 6.29289 8.70711C5.90237 8.31658 5.90237 7.68342 6.29289 7.29289L11.2929 2.29289C11.6834 1.90237 12.3166 1.90237 12.7071 2.29289L17.7085 7.29427C18.099 7.6848 18.099 8.31796 17.7085 8.70849C17.318 9.09901 16.6848 9.09901 16.2943 8.70849L12 4.41421L7.70711 8.70711Z" fill="#3A3A47"/>
<path fill-rule="evenodd" clip-rule="evenodd" d="M16.2943 15.2943C16.6848 14.9038 17.318 14.9038 17.7085 15.2943C18.099 15.6848 18.099 16.318 17.7085 16.7085L12.7085 21.7085C12.318 22.099 11.6848 22.099 11.2943 21.7085L6.29292 16.7071C5.90239 16.3166 5.90239 15.6834 6.29292 15.2929C6.68344 14.9024 7.31661 14.9024 7.70713 15.2929L12.0014 19.5872L16.2943 15.2943Z" fill="#3A3A47"/>
</svg>

<svg xmlns="http://www.w3.org/2000/svg" width="24" height="24" viewBox="0 0 24 24">
    <g fill="#AAAAB9" fill-rule="evenodd">
        <path d="M7.707 8.707a1 1 0 0 1-1.414-1.414l5-5a1 1 0 0 1 1.414 0l5.001 5.001a1 1 0 1 1-1.414 1.414L12 4.414 7.707 8.707zM16.294 15.294a1 1 0 1 1 1.414 1.414l-5 5a1 1 0 0 1-1.414 0l-5.001-5a1 1 0 0 1 1.414-1.415l4.294 4.294 4.293-4.293z"/>
    </g>
</svg>
